public/bonsai-word-mark.svg

<svg fill="none" height="311" viewBox="0 0 1259 311" width="1259" xmlns="http://www.w3.org/2000/svg"><path clip-rule="evenodd" d="m340.895 96.4402c-55.238 0-100.017 44.7788-100.017 100.0168v9.258c0 55.238 44.779 100.017 100.017 100.017h9.964c55.238 0 100.017-44.779 100.017-100.017v-9.258c0-55.238-44.78-100.0168-100.017-100.0168zm4.502 29.0048c-41.705 0-75.513 33.808-75.513 75.512 0 41.705 33.808 75.513 75.513 75.513 41.704 0 75.513-33.808 75.513-75.513 0-41.704-33.809-75.512-75.513-75.512z" fill="#c6ffd9" fill-rule="evenodd"/><path clip-rule="evenodd" d="m235.879 196.457c0-58 47.018-105.018 105.018-105.018h9.963c58 0 105.018 47.018 105.018 105.017v9.258c0 58-47.018 105.018-105.018 105.018h-9.963c-58 0-105.018-47.018-105.018-105.018zm109.52-66.012c-38.943 0-70.512 31.569-70.512 70.512 0 38.942 31.569 70.512 70.512 70.512 38.942 0 70.511-31.57 70.511-70.512 0-38.943-31.569-70.512-70.511-70.512zm-104.521 66.012c0-55.238 44.779-100.0168 100.017-100.0168h9.964c55.237 0 100.017 44.7788 100.017 100.0168v9.258c0 55.238-44.779 100.017-100.017 100.017h-9.964c-55.238 0-100.017-44.779-100.017-100.017zm29.006 4.5c0-41.704 33.808-75.512 75.513-75.512 41.704 0 75.513 33.808 75.513 75.512 0 41.705-33.809 75.513-75.513 75.513-41.705 0-75.513-33.808-75.513-75.513z" fill="#c6ffd9" fill-rule="evenodd"/><path clip-rule="evenodd" d="m897.08 91.9395v40.5065h-134.023c-13.257 0-24.004 10.747-24.004 24.004s10.747 24.004 24.004 24.004h89.517c35.629 0 64.511 28.883 64.511 64.511 0 35.629-28.882 64.511-64.511 64.511h-133.522v-39.507h133.522c13.534 0 24.505-10.97 24.505-24.504 0-13.533-10.971-24.504-24.505-24.504h-89.017c-35.628 0-64.51-28.882-64.51-64.511 0-35.628 28.882-64.5105 64.51-64.5105z" fill="#c6ffd9" fill-rule="evenodd"/><path d="m1253.45 274.47h-89.01v29.005h89.01z" fill="#5be39d"/><path clip-rule="evenodd" d="m1159.44 93.4403v39.0067h29v137.023h-29v39.006h99.01v-39.006h-31v-156.026c0-11.048-8.96-20.0037-20-20.0037z" fill="#5be39d" fill-rule="evenodd"/><path d="m1192.96 28.4282 20.51 20.5096-20.51 20.5095-20.51-20.5095z" fill="#5be39d"/><g clip-rule="evenodd" fill-rule="evenodd"><path d="m1192.96 21.356 27.58 27.5817-27.58 27.5818-27.58-27.5818zm0 7.0722-20.51 20.5096 20.51 20.5095 20.51-20.5095z" fill="#5be39d"/><path d="m507.464 114.262v10.912c0 .371.487.521.694.213 5.771-8.593 19.734-24.294 37.381-30.6962 8.891-2.4459 18.254-3.7523 27.921-3.7523h8.002c57.999 0 105.017 47.0175 105.017 105.0175v113.019h-39.006v-108.518c0-38.39-31.122-69.512-69.512-69.512s-69.511 31.122-69.511 69.512v108.518h-.994v.5h-39.006v-.5h-.007v-113.019c0-.404.002-.808.007-1.211v-103.3064h39.006v22.8294c.003-.002.006-.004.008-.006z" fill="#c6ffd9"/><path d="m1111.68 92.4397h-182.031v39.0063h163.031c8.28 0 15 6.717 15 15.003v18.269c0 .389-.42.633-.76.437-11.53-6.714-24.88-13.705-39.1-13.705h-59.06c-43.661 0-79.055 35.393-79.055 79.054 0 43.66 35.394 79.054 79.055 79.054h59.06c2.94 0 5.84-.16 8.69-.472 14.49-7.583 25.68-20.56 30.53-27.91.14-.206.46-.105.46.143v11.722c1.28-.815 2.54-1.668 3.76-2.558-1.17.849-2.36 1.664-3.58 2.445-.06.038-.12.075-.18.113v5.852c.06-.034.12-.069.18-.104v9.687h39.01v-72.435c.12-1.83.19-3.676.19-5.537s-.07-3.707-.19-5.537v-97.521c0-19.334-15.68-35.0063-35.01-35.0063zm-143.25 138.9533c0-21.819 17.688-39.507 39.51-39.507h60.01c21.82 0 39.5 17.688 39.5 39.507 0 21.818-17.68 39.506-39.5 39.506h-60.01c-21.822 0-39.51-17.688-39.51-39.506z" fill="#5be39d"/><path d="m.253174.424316h42.903926v112.816684h.0002v11.488c0 .248.322.349.4583.143 6.227-9.43 22.8755-28.1187 43.549-32.7995.9181-.2078 1.7182-.4014 2.4069-.5815 7.3194-1.519 14.8985-2.3175 22.6565-2.3175 61.132 0 111.085 49.5535 111.085 110.7285 0 61.176-49.953 110.729-111.085 110.729-10.606 0-20.8767-1.492-30.6078-4.277-18.0869-6.393-32.3662-22.624-38.0285-31.198-.1363-.206-.4583-.105-.4583.143v32.656c.0079.001.0158.002.0237.002v2.797h-42.903926zm111.617826 130.813684c-37.8397 0-68.6608 30.678-68.6608 68.487 0 37.808 30.8211 68.486 68.6608 68.486 37.839 0 68.66-30.678 68.66-68.486 0-37.809-30.821-68.487-68.66-68.487z" fill="#c6ffd9"/></g></svg>

<svg width="1259" height="311" viewBox="0 0 1259 311" fill="none" xmlns="http://www.w3.org/2000/svg">
<path fill-rule="evenodd" clip-rule="evenodd" d="M340.895 96.4402C285.657 96.4402 240.878 141.219 240.878 196.457V205.715C240.878 260.953 285.657 305.732 340.895 305.732H350.859C406.097 305.732 450.876 260.953 450.876 205.715V196.457C450.876 141.219 406.096 96.4402 350.859 96.4402H340.895ZM345.397 125.445C303.692 125.445 269.884 159.253 269.884 200.957C269.884 242.662 303.692 276.47 345.397 276.47C387.101 276.47 420.91 242.662 420.91 200.957C420.91 159.253 387.101 125.445 345.397 125.445Z" fill="#C6FFD9"/>
<path fill-rule="evenodd" clip-rule="evenodd" d="M235.879 196.457C235.879 138.457 282.897 91.439 340.897 91.439H350.86C408.86 91.439 455.878 138.457 455.878 196.456V205.714C455.878 263.714 408.86 310.732 350.86 310.732H340.897C282.897 310.732 235.879 263.714 235.879 205.714V196.457ZM345.399 130.445C306.456 130.445 274.887 162.014 274.887 200.957C274.887 239.899 306.456 271.469 345.399 271.469C384.341 271.469 415.91 239.899 415.91 200.957C415.91 162.014 384.341 130.445 345.399 130.445ZM240.878 196.457C240.878 141.219 285.657 96.4402 340.895 96.4402H350.859C406.096 96.4402 450.876 141.219 450.876 196.457V205.715C450.876 260.953 406.097 305.732 350.859 305.732H340.895C285.657 305.732 240.878 260.953 240.878 205.715V196.457ZM269.884 200.957C269.884 159.253 303.692 125.445 345.397 125.445C387.101 125.445 420.91 159.253 420.91 200.957C420.91 242.662 387.101 276.47 345.397 276.47C303.692 276.47 269.884 242.662 269.884 200.957Z" fill="#C6FFD9"/>
<path fill-rule="evenodd" clip-rule="evenodd" d="M897.08 91.9395V132.446H763.057C749.8 132.446 739.053 143.193 739.053 156.45C739.053 169.707 749.8 180.454 763.057 180.454L852.574 180.454C888.203 180.454 917.085 209.337 917.085 244.965C917.085 280.594 888.203 309.476 852.574 309.476H719.052V269.969H852.574C866.108 269.969 877.079 258.999 877.079 245.465C877.079 231.932 866.108 220.961 852.574 220.961L763.557 220.961C727.929 220.961 699.047 192.079 699.047 156.45C699.047 120.822 727.929 91.9395 763.557 91.9395H897.08Z" fill="#C6FFD9"/>
<path d="M1253.45 274.47H1164.44L1164.44 303.475H1253.45V274.47Z" fill="#5BE39D"/>
<path fill-rule="evenodd" clip-rule="evenodd" d="M1159.44 93.4403L1159.44 132.447H1188.44V269.47H1159.44L1159.44 308.476H1258.45V269.47H1227.45V113.444C1227.45 102.396 1218.49 93.4403 1207.45 93.4403H1159.44Z" fill="#5BE39D"/>
<path d="M1192.96 28.4282L1213.47 48.9378L1192.96 69.4473L1172.45 48.9378L1192.96 28.4282Z" fill="#5BE39D"/>
<path fill-rule="evenodd" clip-rule="evenodd" d="M1192.96 21.356L1220.54 48.9377L1192.96 76.5195L1165.38 48.9377L1192.96 21.356ZM1192.96 28.4282L1172.45 48.9378L1192.96 69.4473L1213.47 48.9378L1192.96 28.4282Z" fill="#5BE39D"/>
<path fill-rule="evenodd" clip-rule="evenodd" d="M507.464 114.262V125.174C507.464 125.545 507.951 125.695 508.158 125.387C513.929 116.794 527.892 101.093 545.539 94.6908C554.43 92.2449 563.793 90.9385 573.46 90.9385H581.462C639.461 90.9385 686.479 137.956 686.479 195.956V308.975H647.473V200.457C647.473 162.067 616.351 130.945 577.961 130.945C539.571 130.945 508.45 162.067 508.45 200.457V308.975H507.456V309.475H468.45V308.975H468.443V195.956C468.443 195.552 468.445 195.148 468.45 194.745V91.4386H507.456V114.268C507.459 114.266 507.462 114.264 507.464 114.262Z" fill="#C6FFD9"/>
<path fill-rule="evenodd" clip-rule="evenodd" d="M1111.68 92.4397L929.649 92.4397V131.446L1092.68 131.446C1100.96 131.446 1107.68 138.163 1107.68 146.449V164.718C1107.68 165.107 1107.26 165.351 1106.92 165.155C1095.39 158.441 1082.04 151.45 1067.82 151.45H1008.76C965.099 151.45 929.705 186.843 929.705 230.504C929.705 274.164 965.099 309.558 1008.76 309.558H1067.82C1070.76 309.558 1073.66 309.398 1076.51 309.086C1091 301.503 1102.19 288.526 1107.04 281.176C1107.18 280.97 1107.5 281.071 1107.5 281.319V293.041C1108.78 292.226 1110.04 291.373 1111.26 290.483C1110.09 291.332 1108.9 292.147 1107.68 292.928C1107.62 292.966 1107.56 293.003 1107.5 293.041V298.893C1107.56 298.859 1107.62 298.824 1107.68 298.789V308.476H1146.69V236.041C1146.81 234.211 1146.88 232.365 1146.88 230.504C1146.88 228.643 1146.81 226.797 1146.69 224.967V127.446C1146.69 108.112 1131.01 92.4397 1111.68 92.4397ZM968.43 231.393C968.43 209.574 986.118 191.886 1007.94 191.886H1067.95C1089.77 191.886 1107.45 209.574 1107.45 231.393C1107.45 253.211 1089.77 270.899 1067.95 270.899H1007.94C986.118 270.899 968.43 253.211 968.43 231.393Z" fill="#5BE39D"/>
<path fill-rule="evenodd" clip-rule="evenodd" d="M0.253174 0.424316H43.1571V113.241L43.1573 113.241V124.729C43.1573 124.977 43.4793 125.078 43.6156 124.872C49.8426 115.442 66.4911 96.7533 87.1646 92.0725C88.0827 91.8647 88.8828 91.6711 89.5715 91.491C96.8909 89.972 104.47 89.1735 112.228 89.1735C173.36 89.1735 223.313 138.727 223.313 199.902C223.313 261.078 173.36 310.631 112.228 310.631C101.622 310.631 91.3513 309.139 81.6202 306.354C63.5333 299.961 49.254 283.73 43.5917 275.156C43.4554 274.95 43.1334 275.051 43.1334 275.299V307.955C43.1413 307.956 43.1492 307.957 43.1571 307.957V310.754H0.253174V0.424316ZM111.871 131.238C74.0313 131.238 43.2102 161.916 43.2102 199.725C43.2102 237.533 74.0313 268.211 111.871 268.211C149.71 268.211 180.531 237.533 180.531 199.725C180.531 161.916 149.71 131.238 111.871 131.238Z" fill="#C6FFD9"/>
</svg>
